client/public/img/game/shared/residues/river_chest_residue.svg

<?xml version="1.0" encoding="UTF-8" standalone="no"?>
<svg
   width="112.52496"
   height="78.594368"
   viewBox="0 0 29.772229 20.794759"
   version="1.1"
   id="svg1408"
   xmlns="http://www.w3.org/2000/svg"
   xmlns:svg="http://www.w3.org/2000/svg"
   xmlns:rdf="http://www.w3.org/1999/02/22-rdf-syntax-ns#"
   xmlns:cc="http://creativecommons.org/ns#"
   xmlns:dc="http://purl.org/dc/elements/1.1/">
  <defs
     id="defs1402" />
  <metadata
     id="metadata1405">
    <rdf:RDF>
      <cc:Work
         rdf:about="">
        <dc:format>image/svg+xml</dc:format>
        <dc:type
           rdf:resource="http://purl.org/dc/dcmitype/StillImage" />
      </cc:Work>
    </rdf:RDF>
  </metadata>
  <g
     id="layer1"
     transform="translate(-82.925278,-94.9506)">
    <path
       id="rect998"
       style="fill:#a87e5a;fill-opacity:1;stroke:#63462c;stroke-width:0.529167;stroke-linecap:square;stroke-opacity:1"
       d="m 84.400645,104.08682 6.449629,-1.73024 -3.746008,2.58403 3.265408,-1.14476 -3.212672,2.33578 2.056006,-0.38388 -2.58552,2.19628 15.428182,-8.907456 -1.06866,0.06621 -4.253855,1.285836 4.130675,-2.14618 -3.891519,0.942931 2.521646,-1.474927 -0.607926,-0.30778 -2.945608,1.003099 3.888514,-3.226024 z" />
    <path
       id="path8"
       style="color:#000000;fill:#2668ad;stroke-linecap:square;-inkscape-stroke:none;fill-opacity:0.49803922"
       d="M 99.69738 94.951117 L 84.267832 103.85755 L 84.468853 104.34176 L 89.437542 103.00799 L 86.952939 104.72261 L 87.191167 105.18925 L 88.759547 104.6389 L 87.002032 105.91789 L 87.20512 106.3928 L 88.28309 106.19126 L 86.456845 107.74207 L 86.759669 108.17408 L 102.18767 99.265582 L 102.03884 98.773622 L 100.93968 98.839768 L 99.379053 99.31054 L 100.98619 98.476483 L 100.80067 97.984523 L 98.663852 98.501804 L 100.04671 97.693585 L 98.906214 97.117393 L 97.212777 97.693585 L 99.998137 95.382615 L 99.69738 94.951117 z " />
    <path
       id="rect998-3"
       style="fill:#a87e5a;fill-opacity:1;stroke:#63462c;stroke-width:0.529167;stroke-linecap:square;stroke-opacity:1"
       d="m 84.937635,98.771764 3.455791,2.065516 -1.76886,0.56765 2.79279,0.90401 0.938154,1.19083 -2.069604,-0.16079 -3.10776,-0.79474 -1.393159,0.52924 17.207903,4.61084 -0.39013,-1.12369 -4.55702,-2.05671 3.180993,0.3457 -2.060061,-1.51819 4.978858,0.0512 z" />
    <path
       id="rect998-6"
       style="fill:#a87e5a;fill-opacity:1;stroke:#63462c;stroke-width:0.529167;stroke-linecap:square;stroke-opacity:1"
       d="m 112.46837,100.18487 -2.65894,2.5219 0.3439,-1.52893 -1.32117,1.82634 1.19038,-3.114947 -1.33275,1.533227 -0.79807,-0.0574 0.69425,-1.35648 0.0252,-2.050673 -8.907471,15.428173 c 0,0 2.523081,-2.48278 2.486481,-2.3947 -0.0366,0.0882 -0.21432,1.6807 -0.21432,1.6807 l 0.74526,-1.13787 1.2716,-2.16942 -0.33564,1.73478 1.54857,-2.08172 -1.37923,3.6808 1.3645,-1.58412 -1.62995,4.49854 z" />
    <path
       id="path2"
       style="color:#000000;fill:#2668ad;stroke-linecap:square;-inkscape-stroke:none;fill-opacity:0.49803922"
       d="M 85.005771 98.515757 L 84.802683 98.997898 L 87.755991 100.76368 L 85.761797 101.40447 L 89.259775 102.53515 L 89.775506 103.18937 L 88.330116 103.0762 L 85.162351 102.26747 L 82.925795 103.11703 L 101.40632 108.06815 L 100.81462 106.36696 L 97.668047 104.94741 L 100.17384 105.21871 L 97.98224 103.6033 L 102.14271 103.64671 L 102.21506 103.12684 L 85.005771 98.515757 z " />
    <path
       id="path5"
       style="color:#000000;fill:#2668ad;stroke-linecap:square;-inkscape-stroke:none;fill-opacity:0.49803922"
       d="M 108.88855 96.949444 L 99.474655 113.25387 L 99.888583 113.57427 C 99.888583 113.57427 100.51881 112.95495 101.14432 112.34592 C 101.39278 112.10401 101.61773 111.88796 101.82438 111.68963 C 101.81838 111.74053 101.81301 111.78248 101.80681 111.83381 C 101.75761 112.24434 101.71276 112.64254 101.71276 112.64254 L 102.19749 112.81618 L 102.94524 111.67361 L 103.43772 110.8318 L 103.39638 111.04884 L 103.86922 111.25761 L 104.30072 110.6778 L 103.57828 112.60534 L 104.02735 112.87095 L 104.4511 112.37899 L 103.31266 115.5235 L 103.79119 115.74623 L 112.6971 100.31616 L 112.28731 99.992153 L 110.26004 101.91607 L 110.41197 101.23652 L 109.93965 101.02361 L 109.79702 101.21895 L 110.26934 99.984401 L 109.82234 99.71465 L 108.57642 101.14867 L 108.30874 101.12903 L 108.84979 100.07432 L 108.88855 96.949444 z " />
  </g>
</svg>

<svg xmlns="http://www.w3.org/2000/svg" width="112.525" height="78.594" viewBox="0 0 29.772 20.795"><path d="m84.4 104.087 6.45-1.73-3.746 2.584 3.266-1.145-3.213 2.336 2.056-.384-2.586 2.196 15.429-8.907-1.069.066-4.254 1.286 4.13-2.147-3.89.943 2.521-1.475-.608-.307-2.946 1.003 3.889-3.226z" style="fill:#a87e5a;fill-opacity:1;stroke:#63462c;stroke-width:.529167;stroke-linecap:square;stroke-opacity:1" transform="translate(-82.925 -94.95)"/><path d="m99.697 94.951-15.43 8.907.202.484 4.969-1.334-2.485 1.715.238.466 1.569-.55-1.758 1.279.203.475 1.078-.202-1.826 1.551.303.432 15.428-8.908-.15-.492-1.098.066-1.56.47 1.606-.834-.185-.491-2.137.517 1.383-.808-1.14-.577-1.694.577 2.785-2.311z" style="color:#000;fill:#2668ad;stroke-linecap:square;-inkscape-stroke:none;fill-opacity:.49803922" transform="translate(-82.925 -94.95)"/><path d="m84.938 98.772 3.455 2.065-1.768.568 2.792.904.939 1.19-2.07-.16-3.108-.795-1.393.53 17.208 4.61-.39-1.123-4.557-2.057 3.18.346-2.06-1.519 4.98.052zM112.468 100.185l-2.659 2.522.344-1.53-1.32 1.827 1.19-3.115-1.333 1.533-.798-.057.694-1.356.025-2.051-8.907 15.428s2.523-2.483 2.486-2.395-.214 1.681-.214 1.681l.745-1.138 1.272-2.17-.336 1.736 1.549-2.082-1.38 3.68 1.365-1.583-1.63 4.498z" style="fill:#a87e5a;fill-opacity:1;stroke:#63462c;stroke-width:.529167;stroke-linecap:square;stroke-opacity:1" transform="translate(-82.925 -94.95)"/><path d="m85.006 98.516-.203.482 2.953 1.766-1.994.64 3.498 1.131.516.654-1.446-.113-3.168-.809-2.236.85 18.48 4.951-.591-1.701-3.147-1.42 2.506.272-2.192-1.616 4.16.044.073-.52zM108.889 96.95l-9.414 16.304.414.32s.63-.62 1.255-1.228c.249-.242.474-.458.68-.656l-.017.144c-.05.41-.094.809-.094.809l.484.173.748-1.142.493-.842-.042.217.473.209.432-.58-.723 1.927.45.266.423-.492-1.138 3.144.478.223 8.906-15.43-.41-.324-2.027 1.924.152-.68-.472-.212-.143.195.472-1.235-.447-.27-1.246 1.435-.267-.02.54-1.055z" style="color:#000;fill:#2668ad;stroke-linecap:square;-inkscape-stroke:none;fill-opacity:.49803922" transform="translate(-82.925 -94.95)"/></svg>
